X:580
L:1/8
M:4/4
K:Amix
 e2 |"A" A3 B c2 d2 |"A" e2 a2 e3 d |"A" c2 A2 A2 Bc |"G" d3 B G2 B2 |"A" A3 B c2 d2 | 
"A" e2 a2 e3 d |"A" c2 BA"G" =G2 B2 |"A" A4 A2 :| =ge |"A" e2 a2 a2 =gf |"A" e2 a2 e3 d | 
"A" c2 A2 A2 Bc |"G" d3 B =G2 gf |"A" e2 a2 a2 =gf |"A" e2 a2 e3 d |"A" c2 BA"G" =G2 B2 | 
"A" A4 A2 =gf ||"A" e2 a2 a2 =gf |"A" e2 a2 e3 d |"A" c2 A2 A2 Bc |"G" d3 B =G2 B2 |"A" ABcd cdef | 
"A" ef=ga e3 d |"A" c2 BA"G" =G2 B2 |"A" A4 A2 ||

